openmetadata-ui/src/main/resources/ui/src/assets/svg/command-button.svg

<svg width="16" height="16" viewBox="0 0 16 16" fill="none" xmlns="http://www.w3.org/2000/svg">
<rect x="0.5" y="0.5" width="15" height="15" rx="1.5" stroke="#DDE3EA"/>
<path d="M11 9H10V7H11C12.1045 7 13 6.1045 13 5C13 3.8955 12.1045 3 11 3C9.89538 3 9 3.8955 9 5V6H7V5C7 3.8955 6.1045 3 5 3C3.8955 3 3 3.8955 3 5C3 6.1045 3.8955 7 5 7H6V9H5C3.8955 9 3 9.8955 3 11C3 12.1045 3.8955 13 5 13C6.10462 13 7 12.1045 7 11V10H9V10.9975C9 10.9985 8.99988 10.9992 8.99988 11C8.99988 12.1045 9.89538 13 10.9999 13C12.1044 13 12.9999 12.1045 12.9999 11C12.9999 9.8955 12.1045 9.00025 11 9ZM11 4C11.5522 4 12 4.44775 12 5C12 5.55225 11.5522 6 11 6H10V5C10 4.44775 10.4478 4 11 4ZM4 5C4 4.44775 4.44775 4 5 4C5.55225 4 6 4.44775 6 5V6H5C4.44775 6 4 5.55212 4 5ZM5 12C4.44775 12 4 11.5522 4 11C4 10.4478 4.44775 10 5 10H6V11C6 11.5522 5.55225 12 5 12ZM7 9V7H9V9H7ZM11 12C10.4478 12 10 11.5522 10 11V10H10.9999C11.5521 10 11.9999 10.4478 11.9999 11C11.9999 11.5522 11.5522 12 11 12Z" fill="#6B7280"/>
</svg>

<svg xmlns="http://www.w3.org/2000/svg" width="16" height="16" fill="none"><rect width="15" height="15" x=".5" y=".5" stroke="#DDE3EA" rx="1.5"/><path fill="#6B7280" d="M11 9h-1V7h1a2 2 0 1 0-2-2v1H7V5a2 2 0 1 0-2 2h1v2H5a2 2 0 1 0 2 2v-1h2v1a2 2 0 1 0 2-2Zm0-5a1 1 0 0 1 0 2h-1V5a1 1 0 0 1 1-1ZM4 5a1 1 0 0 1 2 0v1H5a1 1 0 0 1-1-1Zm1 7a1 1 0 0 1 0-2h1v1a1 1 0 0 1-1 1Zm2-3V7h2v2H7Zm4 3a1 1 0 0 1-1-1v-1h1a1 1 0 0 1 0 2Z"/></svg>
